www/assets/icons/legend_toggle.svg

<svg xmlns="http://www.w3.org/2000/svg" width="24" height="24" viewBox="0 0 24 24" fill='currentColor'><path d="M20 15H4v-2h16zm0 2H4v2h16zm-5-6 5-3.55V5l-5 3.55L10 5 4 8.66V11l5.92-3.61z"/></svg>

<svg width="24" height="24" viewBox="0 0 24 24" xmlns="http://www.w3.org/2000/svg" fill='currentColor'><path d="M20 15H4V13H20V15ZM20 17H4V19H20V17ZM15 11L20 7.45V5L15 8.55L10 5L4 8.66V11L9.92 7.39L15 11Z"/></svg>
